public/images/media/logo-wired.svg

<svg width="401pt" height="82pt" viewBox="0 0 401 82" xmlns="http://www.w3.org/2000/svg"><path fill="#231f20" d="M0 0h80.25v82H0V0m5.91 12.87C9.49 29.54 12.7 46.3 16.15 63c.63 2 .24 4.64 2.18 5.98 3.5.56 7.09.42 10.62.18 1.92.06 2.38-2.2 2.73-3.65 2.41-11.89 5.03-23.74 7.43-35.63.19-1.1.53-2.17 1.05-3.16 2.99 12.76 5.46 25.63 8.24 38.43.38 1.36.46 3.04 1.8 3.87 3.82.46 7.74.5 11.55-.03 1.37-.81 1.44-2.48 1.79-3.86 3.53-17.41 6.82-34.89 10.55-52.26-3.37.02-6.73.01-10.09.01-2.68 15.15-4.83 30.4-7.79 45.5-3.33-12.81-5.56-25.93-8.46-38.86-.66-2.21-.36-5.43-2.78-6.55a71.43 71.43 0 0 0-8.9 0c-1.68.14-2.06 2.13-2.39 3.45-2.68 12.82-5.49 25.61-8.11 38.43-.27 1.19-.67 2.33-1.12 3.46-2.69-15.11-5.24-30.26-7.56-45.43-3.66-.01-7.32.01-10.98-.01z"/><path fill="#fff" d="M80.25 0h79.5v82h-79.5V0m20.36 12.33c-.04 3.36-.04 6.71 0 10.07 4.57.03 9.14.01 13.71.01-.02 12.39-.02 24.79 0 37.18-4.57 0-9.14-.02-13.71.01-.04 3.36-.04 6.71.01 10.07 12.92.03 25.84.03 38.76 0 .05-3.35.04-6.71.02-10.06-4.58-.04-9.15-.02-13.72-.02.02-12.39.02-24.79 0-37.18 4.57 0 9.14.02 13.71-.01.04-3.36.04-6.72-.01-10.07-12.92-.03-25.84-.03-38.77 0z"/><path fill="#231f20" d="M159.75 0H240v82h-80.25V0m18.13 12.88v56.24H189v-22c6.03.02 12.06-.03 18.09.01 2.2-.21 4.82 1.36 4.77 3.78.28 6.08.8 12.14 1.18 18.21 3.53 0 7.05 0 10.58.01-1-6.88.23-13.99-1.71-20.73-1-3.53-4.9-4.32-7.94-5.2 2.26-1.2 5.16-1.31 6.8-3.51 2.38-3.02 2.55-7.05 2.56-10.73-.04-4.3.06-9.03-2.67-12.64-2.18-3-6.26-3.44-9.68-3.44-11.03-.01-22.07 0-33.1 0z"/><path fill="#fff" d="M240 0h79.75v82H240V0m14.34 12.34c-.04 3.34-.04 6.69-.02 10.03 2.55.05 5.1.05 7.65.03.05 12.4.05 24.8 0 37.2-2.55-.02-5.09-.02-7.64.01-.03 3.35-.04 6.7.01 10.05 16.08.05 32.15.05 48.23 0 .08-6.63.03-13.26.03-19.89-3.49-.03-6.98-.03-10.47.01-.01 3.27-.01 6.54 0 9.81-6.36.01-12.72-.04-19.08.03-.1-4.91-.03-9.83-.05-14.74h15v-9.57h-15c0-4.3-.01-8.6.01-12.9 6.2.01 12.39.01 18.59 0-.02 2.86-.02 5.72-.01 8.59h10.29c-.01-6.22.01-12.44-.01-18.66-15.85-.05-31.69-.05-47.53 0z"/><path fill="#231f20" d="M319.75 0H401v82h-81.25V0m18.13 12.88v56.24c9.35-.02 18.69.04 28.04-.03 5.76-.11 12.47-1.18 15.94-6.34 4.05-6.48 3.44-14.41 4.15-21.72-.72-7.32-.08-15.28-4.15-21.78-3.23-4.83-9.41-6.1-14.84-6.3-9.71-.16-19.43-.03-29.14-.07zm-237.27-.55c12.93-.03 25.85-.03 38.77 0 .05 3.35.05 6.71.01 10.07-4.57.03-9.14.01-13.71.01.02 12.39.02 24.79 0 37.18 4.57 0 9.14-.02 13.72.02.02 3.35.03 6.71-.02 10.06-12.92.03-25.84.03-38.76 0-.05-3.36-.05-6.71-.01-10.07 4.57-.03 9.14-.01 13.71-.01-.02-12.39-.02-24.79 0-37.18-4.57 0-9.14.02-13.71-.01-.04-3.36-.04-6.71 0-10.07zm153.73.01c15.84-.05 31.68-.05 47.53 0 .02 6.22 0 12.44.01 18.66h-10.29c-.01-2.87-.01-5.73.01-8.59-6.2.01-12.39.01-18.59 0-.02 4.3-.01 8.6-.01 12.9h15v9.57h-15c.02 4.91-.05 9.83.05 14.74 6.36-.07 12.72-.02 19.08-.03-.01-3.27-.01-6.54 0-9.81 3.49-.04 6.98-.04 10.47-.01 0 6.63.05 13.26-.03 19.89-16.08.05-32.15.05-48.23 0-.05-3.35-.04-6.7-.01-10.05 2.55-.03 5.09-.03 7.64-.01.05-12.4.05-24.8 0-37.2-2.55.02-5.1.02-7.65-.03-.02-3.34-.02-6.69.02-10.03z"/><path fill="#fff" d="M5.91 12.87c3.66.02 7.32 0 10.98.01 2.32 15.17 4.87 30.32 7.56 45.43.45-1.13.85-2.27 1.12-3.46 2.62-12.82 5.43-25.61 8.11-38.43.33-1.32.71-3.31 2.39-3.45 2.96-.19 5.94-.18 8.9 0 2.42 1.12 2.12 4.34 2.78 6.55 2.9 12.93 5.13 26.05 8.46 38.86 2.96-15.1 5.11-30.35 7.79-45.5 3.36 0 6.72.01 10.09-.01-3.73 17.37-7.02 34.85-10.55 52.26-.35 1.38-.42 3.05-1.79 3.86-3.81.53-7.73.49-11.55.03-1.34-.83-1.42-2.51-1.8-3.87-2.78-12.8-5.25-25.67-8.24-38.43-.52.99-.86 2.06-1.05 3.16-2.4 11.89-5.02 23.74-7.43 35.63-.35 1.45-.81 3.71-2.73 3.65-3.53.24-7.12.38-10.62-.18-1.94-1.34-1.55-3.98-2.18-5.98C12.7 46.3 9.49 29.54 5.91 12.87zm171.97.01c11.03 0 22.07-.01 33.1 0 3.42 0 7.5.44 9.68 3.44 2.73 3.61 2.63 8.34 2.67 12.64-.01 3.68-.18 7.71-2.56 10.73-1.64 2.2-4.54 2.31-6.8 3.51 3.04.88 6.94 1.67 7.94 5.2 1.94 6.74.71 13.85 1.71 20.73-3.53-.01-7.05-.01-10.58-.01-.38-6.07-.9-12.13-1.18-18.21.05-2.42-2.57-3.99-4.77-3.78-6.03-.04-12.06.01-18.09-.01v22h-11.12V12.88M189 22.12v16.29c6.65-.09 13.32.2 19.96-.14 3.57-.21 3.62-4.5 3.76-7.18-.11-2.95.44-6.87-2.31-8.82-7.12-.37-14.27-.04-21.41-.15zm148.88-9.24c9.71.04 19.43-.09 29.14.07 5.43.2 11.61 1.47 14.84 6.3 4.07 6.5 3.43 14.46 4.15 21.78-.71 7.31-.1 15.24-4.15 21.72-3.47 5.16-10.18 6.23-15.94 6.34-9.35.07-18.69.01-28.04.03V12.88M349 22.12v37.76c5.69-.01 11.38.01 17.08.01 2.73.05 6.04-.67 7.32-3.39 1.91-4.21 1.44-8.95 1.6-13.44-.21-5.62.59-11.48-1.3-16.88-.85-2.76-3.92-4.07-6.61-4.04-6.03-.06-12.06.01-18.09-.02z"/><path fill="#231f20" d="M189 22.12c7.14.11 14.29-.22 21.41.15 2.75 1.95 2.2 5.87 2.31 8.82-.14 2.68-.19 6.97-3.76 7.18-6.64.34-13.31.05-19.96.14V22.12zm160 0c6.03.03 12.06-.04 18.09.02 2.69-.03 5.76 1.28 6.61 4.04 1.89 5.4 1.09 11.26 1.3 16.88-.16 4.49.31 9.23-1.6 13.44-1.28 2.72-4.59 3.44-7.32 3.39-5.7 0-11.39-.02-17.08-.01V22.12z"/></svg>

<?xml version="1.0" encoding="UTF-8" ?>
<!DOCTYPE svg PUBLIC "-//W3C//DTD SVG 1.1//EN" "http://www.w3.org/Graphics/SVG/1.1/DTD/svg11.dtd">
<svg width="401pt" height="82pt" viewBox="0 0 401 82" version="1.1" xmlns="http://www.w3.org/2000/svg">
<path fill="#231f20" opacity="1.00" d=" M 0.00 0.00 L 80.25 0.00 C 80.25 27.33 80.25 54.67 80.25 82.00 L 0.00 82.00 L 0.00 0.00 M 5.91 12.87 C 9.49 29.54 12.70 46.30 16.15 63.00 C 16.78 65.00 16.39 67.64 18.33 68.98 C 21.83 69.54 25.42 69.40 28.95 69.16 C 30.87 69.22 31.33 66.96 31.68 65.51 C 34.09 53.62 36.71 41.77 39.11 29.88 C 39.30 28.78 39.64 27.71 40.16 26.72 C 43.15 39.48 45.62 52.35 48.40 65.15 C 48.78 66.51 48.86 68.19 50.20 69.02 C 54.02 69.48 57.94 69.52 61.75 68.99 C 63.12 68.18 63.19 66.51 63.54 65.13 C 67.07 47.72 70.36 30.24 74.09 12.87 C 70.72 12.89 67.36 12.88 64.00 12.88 C 61.32 28.03 59.17 43.28 56.21 58.38 C 52.88 45.57 50.65 32.45 47.75 19.52 C 47.09 17.31 47.39 14.09 44.97 12.97 C 42.01 12.79 39.03 12.78 36.07 12.97 C 34.39 13.11 34.01 15.10 33.68 16.42 C 31.00 29.24 28.19 42.03 25.57 54.85 C 25.30 56.04 24.90 57.18 24.45 58.31 C 21.76 43.20 19.21 28.05 16.89 12.88 C 13.23 12.87 9.57 12.89 5.91 12.87 Z" />
<path fill="#ffffff" opacity="1.00" d=" M 80.25 0.00 L 159.75 0.00 C 159.75 27.33 159.75 54.67 159.75 82.00 L 80.25 82.00 C 80.25 54.67 80.25 27.33 80.25 0.00 M 100.61 12.33 C 100.57 15.69 100.57 19.04 100.61 22.40 C 105.18 22.43 109.75 22.41 114.32 22.41 C 114.30 34.80 114.30 47.20 114.32 59.59 C 109.75 59.59 105.18 59.57 100.61 59.60 C 100.57 62.96 100.57 66.31 100.62 69.67 C 113.54 69.70 126.46 69.70 139.38 69.67 C 139.43 66.32 139.42 62.96 139.40 59.61 C 134.82 59.57 130.25 59.59 125.68 59.59 C 125.70 47.20 125.70 34.80 125.68 22.41 C 130.25 22.41 134.82 22.43 139.39 22.40 C 139.43 19.04 139.43 15.68 139.38 12.33 C 126.46 12.30 113.54 12.30 100.61 12.33 Z" />
<path fill="#231f20" opacity="1.00" d=" M 159.75 0.00 L 240.00 0.00 C 240.00 27.33 240.00 54.67 240.00 82.00 L 159.75 82.00 C 159.75 54.67 159.75 27.33 159.75 0.00 M 177.88 12.88 C 177.88 31.63 177.88 50.37 177.88 69.12 C 181.58 69.12 185.29 69.12 189.00 69.12 C 189.00 61.79 189.00 54.45 189.00 47.12 C 195.03 47.14 201.06 47.09 207.09 47.13 C 209.29 46.92 211.91 48.49 211.86 50.91 C 212.14 56.99 212.66 63.05 213.04 69.12 C 216.57 69.12 220.09 69.12 223.62 69.13 C 222.62 62.25 223.85 55.14 221.91 48.40 C 220.91 44.87 217.01 44.08 213.97 43.20 C 216.23 42.00 219.13 41.89 220.77 39.69 C 223.15 36.67 223.32 32.64 223.33 28.96 C 223.29 24.66 223.39 19.93 220.66 16.32 C 218.48 13.32 214.40 12.88 210.98 12.88 C 199.95 12.87 188.91 12.88 177.88 12.88 Z" />
<path fill="#ffffff" opacity="1.00" d=" M 240.00 0.00 L 319.75 0.00 C 319.75 27.33 319.75 54.67 319.75 82.00 L 240.00 82.00 C 240.00 54.67 240.00 27.33 240.00 0.00 M 254.34 12.34 C 254.30 15.68 254.30 19.03 254.32 22.37 C 256.87 22.42 259.42 22.42 261.97 22.40 C 262.02 34.80 262.02 47.20 261.97 59.60 C 259.42 59.58 256.88 59.58 254.33 59.61 C 254.30 62.96 254.29 66.31 254.34 69.66 C 270.42 69.71 286.49 69.71 302.57 69.66 C 302.65 63.03 302.60 56.40 302.60 49.77 C 299.11 49.74 295.62 49.74 292.13 49.78 C 292.12 53.05 292.12 56.32 292.13 59.59 C 285.77 59.60 279.41 59.55 273.05 59.62 C 272.95 54.71 273.02 49.79 273.00 44.88 C 278.00 44.88 283.00 44.88 288.00 44.88 C 288.00 41.69 288.00 38.50 288.00 35.31 C 283.00 35.31 278.00 35.31 273.00 35.31 C 273.00 31.01 272.99 26.71 273.01 22.41 C 279.21 22.42 285.40 22.42 291.60 22.41 C 291.58 25.27 291.58 28.13 291.59 31.00 C 295.02 31.00 298.45 31.00 301.88 31.00 C 301.87 24.78 301.89 18.56 301.87 12.34 C 286.02 12.29 270.18 12.29 254.34 12.34 Z" />
<path fill="#231f20" opacity="1.00" d=" M 319.75 0.00 L 401.00 0.00 L 401.00 82.00 L 319.75 82.00 C 319.75 54.67 319.75 27.33 319.75 0.00 M 337.88 12.88 C 337.88 31.63 337.88 50.37 337.88 69.12 C 347.23 69.10 356.57 69.16 365.92 69.09 C 371.68 68.98 378.39 67.91 381.86 62.75 C 385.91 56.27 385.30 48.34 386.01 41.03 C 385.29 33.71 385.93 25.75 381.86 19.25 C 378.63 14.42 372.45 13.15 367.02 12.95 C 357.31 12.79 347.59 12.92 337.88 12.88 Z" />
<path fill="#231f20" opacity="1.00" d=" M 100.61 12.33 C 113.54 12.30 126.46 12.30 139.38 12.33 C 139.43 15.68 139.43 19.04 139.39 22.40 C 134.82 22.43 130.25 22.41 125.68 22.41 C 125.70 34.80 125.70 47.20 125.68 59.59 C 130.25 59.59 134.82 59.57 139.40 59.61 C 139.42 62.96 139.43 66.32 139.38 69.67 C 126.46 69.70 113.54 69.70 100.62 69.67 C 100.57 66.31 100.57 62.96 100.61 59.60 C 105.18 59.57 109.75 59.59 114.32 59.59 C 114.30 47.20 114.30 34.80 114.32 22.41 C 109.75 22.41 105.18 22.43 100.61 22.40 C 100.57 19.04 100.57 15.69 100.61 12.33 Z" />
<path fill="#231f20" opacity="1.00" d=" M 254.34 12.34 C 270.18 12.29 286.02 12.29 301.87 12.34 C 301.89 18.56 301.87 24.78 301.88 31.00 C 298.45 31.00 295.02 31.00 291.59 31.00 C 291.58 28.13 291.58 25.27 291.60 22.41 C 285.40 22.42 279.21 22.42 273.01 22.41 C 272.99 26.71 273.00 31.01 273.00 35.31 C 278.00 35.31 283.00 35.31 288.00 35.31 C 288.00 38.50 288.00 41.69 288.00 44.88 C 283.00 44.88 278.00 44.88 273.00 44.88 C 273.02 49.79 272.95 54.71 273.05 59.62 C 279.41 59.55 285.77 59.60 292.13 59.59 C 292.12 56.32 292.12 53.05 292.13 49.78 C 295.62 49.74 299.11 49.74 302.60 49.77 C 302.60 56.40 302.65 63.03 302.57 69.66 C 286.49 69.71 270.42 69.71 254.34 69.66 C 254.29 66.31 254.30 62.96 254.33 59.61 C 256.88 59.58 259.42 59.58 261.97 59.60 C 262.02 47.20 262.02 34.80 261.97 22.40 C 259.42 22.42 256.87 22.42 254.32 22.37 C 254.30 19.03 254.30 15.68 254.34 12.34 Z" />
<path fill="#ffffff" opacity="1.00" d=" M 5.91 12.87 C 9.57 12.89 13.23 12.87 16.89 12.88 C 19.21 28.05 21.76 43.20 24.45 58.31 C 24.90 57.18 25.30 56.04 25.57 54.85 C 28.19 42.03 31.00 29.24 33.68 16.42 C 34.01 15.10 34.39 13.11 36.07 12.97 C 39.03 12.78 42.01 12.79 44.97 12.97 C 47.39 14.09 47.09 17.31 47.75 19.52 C 50.65 32.45 52.88 45.57 56.21 58.38 C 59.17 43.28 61.32 28.03 64.00 12.88 C 67.36 12.88 70.72 12.89 74.09 12.87 C 70.36 30.24 67.07 47.72 63.54 65.13 C 63.19 66.51 63.12 68.18 61.75 68.99 C 57.94 69.52 54.02 69.48 50.20 69.02 C 48.86 68.19 48.78 66.51 48.40 65.15 C 45.62 52.35 43.15 39.48 40.16 26.72 C 39.64 27.71 39.30 28.78 39.11 29.88 C 36.71 41.77 34.09 53.62 31.68 65.51 C 31.33 66.96 30.87 69.22 28.95 69.16 C 25.42 69.40 21.83 69.54 18.33 68.98 C 16.39 67.64 16.78 65.00 16.15 63.00 C 12.70 46.30 9.49 29.54 5.91 12.87 Z" />
<path fill="#ffffff" opacity="1.00" d=" M 177.88 12.88 C 188.91 12.88 199.95 12.87 210.98 12.88 C 214.40 12.88 218.48 13.32 220.66 16.32 C 223.39 19.93 223.29 24.66 223.33 28.96 C 223.32 32.64 223.15 36.67 220.77 39.69 C 219.13 41.89 216.23 42.00 213.97 43.20 C 217.01 44.08 220.91 44.87 221.91 48.40 C 223.85 55.14 222.62 62.25 223.62 69.13 C 220.09 69.12 216.57 69.12 213.04 69.12 C 212.66 63.05 212.14 56.99 211.86 50.91 C 211.91 48.49 209.29 46.92 207.09 47.13 C 201.06 47.09 195.03 47.14 189.00 47.12 C 189.00 54.45 189.00 61.79 189.00 69.12 C 185.29 69.12 181.58 69.12 177.88 69.12 C 177.88 50.37 177.88 31.63 177.88 12.88 M 189.00 22.12 C 189.00 27.55 189.00 32.98 189.00 38.41 C 195.65 38.32 202.32 38.61 208.96 38.27 C 212.53 38.06 212.58 33.77 212.72 31.09 C 212.61 28.14 213.16 24.22 210.41 22.27 C 203.29 21.90 196.14 22.23 189.00 22.12 Z" />
<path fill="#ffffff" opacity="1.00" d=" M 337.88 12.88 C 347.59 12.92 357.31 12.79 367.02 12.95 C 372.45 13.15 378.63 14.42 381.86 19.25 C 385.93 25.75 385.29 33.71 386.01 41.03 C 385.30 48.34 385.91 56.27 381.86 62.75 C 378.39 67.91 371.68 68.98 365.92 69.09 C 356.57 69.16 347.23 69.10 337.88 69.12 C 337.88 50.37 337.88 31.63 337.88 12.88 M 349.00 22.12 C 349.00 34.71 349.00 47.29 349.00 59.88 C 354.69 59.87 360.38 59.89 366.08 59.89 C 368.81 59.94 372.12 59.22 373.40 56.50 C 375.31 52.29 374.84 47.55 375.00 43.06 C 374.79 37.44 375.59 31.58 373.70 26.18 C 372.85 23.42 369.78 22.11 367.09 22.14 C 361.06 22.08 355.03 22.15 349.00 22.12 Z" />
<path fill="#231f20" opacity="1.00" d=" M 189.00 22.12 C 196.14 22.23 203.29 21.90 210.41 22.27 C 213.16 24.22 212.61 28.14 212.72 31.09 C 212.58 33.77 212.53 38.06 208.96 38.27 C 202.32 38.61 195.65 38.32 189.00 38.41 C 189.00 32.98 189.00 27.55 189.00 22.12 Z" />
<path fill="#231f20" opacity="1.00" d=" M 349.00 22.12 C 355.03 22.15 361.06 22.08 367.09 22.14 C 369.78 22.11 372.85 23.42 373.70 26.18 C 375.59 31.58 374.79 37.44 375.00 43.06 C 374.84 47.55 375.31 52.29 373.40 56.50 C 372.12 59.22 368.81 59.94 366.08 59.89 C 360.38 59.89 354.69 59.87 349.00 59.88 C 349.00 47.29 349.00 34.71 349.00 22.12 Z" />
</svg>
